img/like-shapes.svg

<svg width="48" height="48" viewBox="0 0 48 48" fill="none" xmlns="http://www.w3.org/2000/svg">
<path opacity="0.4" d="M21.4998 4.90001C22.8798 3.72001 25.1397 3.72001 26.5397 4.90001L29.6998 7.61999C30.2998 8.13999 31.4197 8.56005 32.2197 8.56005H35.6198C37.7398 8.56005 39.4797 10.3 39.4797 12.42V15.8199C39.4797 16.5999 39.8997 17.74 40.4197 18.34L43.1398 21.5C44.3198 22.88 44.3198 25.14 43.1398 26.54L40.4197 29.6999C39.8997 30.2999 39.4797 31.42 39.4797 32.22V35.62C39.4797 37.74 37.7398 39.48 35.6198 39.48H32.2197C31.4397 39.48 30.2998 39.9 29.6998 40.42L26.5397 43.14C25.1597 44.32 22.8998 44.32 21.4998 43.14L18.3398 40.42C17.7398 39.9 16.6198 39.48 15.8198 39.48H12.3597C10.2397 39.48 8.49976 37.74 8.49976 35.62V32.1999C8.49976 31.4199 8.07978 30.2999 7.57978 29.6999L4.87977 26.52C3.71977 25.14 3.71977 22.9 4.87977 21.52L7.57978 18.34C8.07978 17.74 8.49976 16.62 8.49976 15.84V12.42C8.49976 10.3 10.2397 8.56005 12.3597 8.56005H15.8198C16.5998 8.56005 17.7398 8.13999 18.3398 7.61999L21.4998 4.90001Z" fill="#191A23"/>
<path d="M33.1599 22.14C32.7799 21.6 32.1399 21.3 31.3799 21.3H27.4799C27.2199 21.3 26.9799 21.2 26.8199 21C26.6599 20.8 26.5799 20.54 26.6199 20.26L27.0999 17.14C27.2999 16.22 26.6799 15.1599 25.7599 14.8599C24.8999 14.5399 23.8799 14.9799 23.4799 15.5799L19.5999 21.3399V20.6199C19.5999 19.2199 19 18.64 17.52 18.64H16.5399C15.0599 18.64 14.46 19.2199 14.46 20.6199V30.18C14.46 31.58 15.0599 32.16 16.5399 32.16H17.52C18.92 32.16 19.52 31.6199 19.58 30.3399L22.52 32.5999C22.92 32.9999 23.82 33.2199 24.46 33.2199H28.1599C29.4399 33.2199 30.7199 32.2599 30.9999 31.0799L33.34 23.9599C33.6 23.3199 33.5399 22.66 33.1599 22.14Z" fill="#191A23"/>
</svg>

<svg xmlns="http://www.w3.org/2000/svg" width="48" height="48" fill="none"><path fill="#191A23" d="M21.5 4.9c1.38-1.18 3.64-1.18 5.04 0l3.16 2.72c.6.52 1.72.94 2.52.94h3.4c2.12 0 3.86 1.74 3.86 3.86v3.4c0 .78.42 1.92.94 2.52l2.72 3.16c1.18 1.38 1.18 3.64 0 5.04l-2.72 3.16c-.52.6-.94 1.72-.94 2.52v3.4c0 2.12-1.74 3.86-3.86 3.86h-3.4c-.78 0-1.92.42-2.52.94l-3.16 2.72c-1.38 1.18-3.64 1.18-5.04 0l-3.16-2.72c-.6-.52-1.72-.94-2.52-.94h-3.46c-2.12 0-3.86-1.74-3.86-3.86V32.2c0-.78-.42-1.9-.92-2.5l-2.7-3.18c-1.16-1.38-1.16-3.62 0-5l2.7-3.18c.5-.6.92-1.72.92-2.5v-3.42c0-2.12 1.74-3.86 3.86-3.86h3.46c.78 0 1.92-.42 2.52-.94z" opacity=".4"/><path fill="#191A23" d="M33.16 22.14c-.38-.54-1.02-.84-1.78-.84h-3.9c-.26 0-.5-.1-.66-.3a.96.96 0 0 1-.2-.74l.48-3.12c.2-.92-.42-1.98-1.34-2.28-.86-.32-1.88.12-2.28.72l-3.88 5.76v-.72c0-1.4-.6-1.98-2.08-1.98h-.98c-1.48 0-2.08.58-2.08 1.98v9.56c0 1.4.6 1.98 2.08 1.98h.98c1.4 0 2-.54 2.06-1.82l2.94 2.26c.4.4 1.3.62 1.94.62h3.7c1.28 0 2.56-.96 2.84-2.14l2.34-7.12c.26-.64.2-1.3-.18-1.82"/></svg>
